image/logo_footer.svg

<svg width="308" height="83" viewBox="0 0 308 83" fill="none" xmlns="http://www.w3.org/2000/svg">
<path fill-rule="evenodd" clip-rule="evenodd" d="M68.1601 79H43.4376C22.6502 79 5.79883 62.2107 5.79883 41.5C5.79883 20.7893 22.6503 4 43.4376 4H68.1601C88.9474 4 105.799 20.7893 105.799 41.5C105.799 62.2107 88.9474 79 68.1601 79ZM43.4376 13.0231C27.652 13.0231 14.8553 25.7727 14.8553 41.5C14.8553 54.9924 24.2735 66.2932 36.9172 69.2325C32.3876 64.1309 29.6382 57.4238 29.6382 50.077C29.6382 34.1033 42.6354 21.154 58.6683 21.154H88.158C83.0033 16.1241 75.9452 13.0231 68.1601 13.0231H43.4376ZM54.778 69.5997C45.6091 67.7963 38.6947 59.7411 38.6947 50.077C38.6947 39.0866 47.6372 30.1771 58.6683 30.1771H94.3937C95.3282 32.3233 96.0051 34.6067 96.3856 36.9884H72.3542C60.7102 36.9884 51.2707 46.393 51.2707 57.9942C51.2707 62.2847 52.5618 66.2747 54.778 69.5997ZM96.3856 46.0116C94.3462 58.7766 83.7929 68.7142 70.7068 69.8654C64.8439 69.0652 60.3273 64.0552 60.3273 57.9942C60.3273 51.3764 65.7119 46.0116 72.3542 46.0116H96.3856Z" fill="#3B4BDD"/>
<path d="M131.861 29.168C131.861 30.8867 131.513 32.3906 130.818 33.6797C130.13 34.9609 129.158 35.957 127.9 36.668C126.65 37.3789 125.181 37.7344 123.494 37.7344C121.767 37.7344 120.283 37.3906 119.041 36.7031C117.798 36.0078 116.845 35.0195 116.181 33.7383C115.517 32.457 115.185 30.9336 115.185 29.168C115.185 27.4023 115.513 25.8906 116.169 24.6328C116.833 23.375 117.787 22.4141 119.029 21.75C120.279 21.0781 121.775 20.7422 123.517 20.7422C125.267 20.7422 126.763 21.082 128.005 21.7617C129.248 22.4336 130.201 23.3984 130.865 24.6562C131.529 25.9141 131.861 27.418 131.861 29.168ZM128.333 29.168C128.333 27.3867 127.912 25.9922 127.068 24.9844C126.224 23.9688 125.041 23.4609 123.517 23.4609C121.97 23.4609 120.775 23.9648 119.931 24.9727C119.087 25.9727 118.666 27.3711 118.666 29.168C118.666 30.3711 118.861 31.4102 119.251 32.2852C119.642 33.1602 120.197 33.8359 120.916 34.3125C121.642 34.7812 122.501 35.0156 123.494 35.0156C125.041 35.0156 126.232 34.5078 127.068 33.4922C127.912 32.4766 128.333 31.0352 128.333 29.168Z" fill="white"/>
<path d="M149.028 26.2148C149.028 27.2852 148.782 28.2344 148.29 29.0625C147.805 29.8828 147.114 30.5273 146.215 30.9961C145.317 31.457 144.247 31.6875 143.004 31.6875H138.903V37.5H135.446V20.9883H142.864C144.84 20.9883 146.36 21.4453 147.422 22.3594C148.493 23.2656 149.028 24.5508 149.028 26.2148ZM145.547 26.2734C145.547 24.5391 144.524 23.6719 142.477 23.6719H138.903V29.0273H142.571C143.524 29.0273 144.258 28.793 144.774 28.3242C145.29 27.8477 145.547 27.1641 145.547 26.2734Z" fill="white"/>
<path d="M173.32 20.9883V37.5H152.414V20.9883H155.753V34.6406H161.191V20.9883H164.531V34.6406H169.98V20.9883H173.32Z" fill="white"/>
<path d="M181.405 33.2812L179.94 37.5H176.483L182.506 20.9883H186.585L192.585 37.5H189.163L187.698 33.2812H181.405ZM184.546 23.5312C184.467 23.8438 184.358 24.2188 184.217 24.6562C184.077 25.0938 183.975 25.4023 183.913 25.582L182.178 30.6797H186.924L185.143 25.4766C185.034 25.1562 184.932 24.832 184.839 24.5039C184.745 24.1758 184.647 23.8516 184.546 23.5312Z" fill="white"/>
<path d="M123.517 59.0156C125.611 59.0156 127.06 57.9688 127.865 55.875L130.876 57.0117C130.228 58.6055 129.275 59.793 128.017 60.5742C126.767 61.3477 125.267 61.7344 123.517 61.7344C121.751 61.7344 120.248 61.3984 119.005 60.7266C117.763 60.0469 116.814 59.0664 116.158 57.7852C115.509 56.5039 115.185 54.9648 115.185 53.168C115.185 51.3555 115.498 49.8242 116.123 48.5742C116.748 47.3242 117.669 46.375 118.888 45.7266C120.107 45.0703 121.599 44.7422 123.365 44.7422C125.302 44.7422 126.88 45.1328 128.099 45.9141C129.318 46.6875 130.173 47.8281 130.666 49.3359L127.619 50.168C127.361 49.3398 126.853 48.6836 126.095 48.1992C125.345 47.707 124.458 47.4609 123.435 47.4609C121.873 47.4609 120.685 47.9453 119.873 48.9141C119.068 49.8828 118.666 51.3008 118.666 53.168C118.666 54.4336 118.849 55.5 119.216 56.3672C119.591 57.2344 120.138 57.8945 120.857 58.3477C121.583 58.793 122.47 59.0156 123.517 59.0156Z" fill="white"/>
<path d="M140.977 47.6602V61.5H137.52V47.6602H132.188V44.9883H146.321V47.6602H140.977Z" fill="white"/>
<path d="M151.546 57.2812L150.082 61.5H146.625L152.648 44.9883H156.726L162.726 61.5H159.304L157.839 57.2812H151.546ZM154.687 47.5312C154.609 47.8438 154.5 48.2188 154.359 48.6562C154.218 49.0938 154.117 49.4023 154.054 49.582L152.32 54.6797H157.066L155.285 49.4766C155.175 49.1562 155.074 48.832 154.98 48.5039C154.886 48.1758 154.789 47.8516 154.687 47.5312Z" fill="white"/>
<path d="M169.967 58.2188C169.569 59.4688 169.065 60.3594 168.456 60.8906C167.846 61.4219 166.991 61.6875 165.889 61.6875C165.358 61.6875 164.971 61.6211 164.729 61.4883V58.5938C164.831 58.6484 164.999 58.6758 165.233 58.6758C165.46 58.6758 165.663 58.6094 165.842 58.4766C166.022 58.3359 166.186 58.1289 166.335 57.8555C166.467 57.6055 166.592 57.293 166.71 56.918C166.835 56.5352 166.956 56.082 167.073 55.5586C167.143 55.2383 167.217 54.8594 167.296 54.4219C167.374 53.9844 167.471 53.3945 167.588 52.6523C167.713 51.9023 167.866 50.9141 168.046 49.6875C168.225 48.4609 168.448 46.8945 168.713 44.9883H179.87V61.5H176.542V47.8477H171.772L171.198 51.9258C170.776 54.8477 170.366 56.9453 169.967 58.2188Z" fill="white"/>
<path d="M198.841 56.4492C198.841 57.4414 198.595 58.3203 198.103 59.0859C197.611 59.8438 196.908 60.4375 195.994 60.8672C195.08 61.2891 193.994 61.5 192.736 61.5H184.052V44.9883H187.509V51.5625H193.111C194.947 51.5625 196.361 51.9922 197.353 52.8516C198.345 53.7031 198.841 54.9023 198.841 56.4492ZM195.349 56.4961C195.349 55.7695 195.076 55.2109 194.529 54.8203C193.99 54.4219 193.181 54.2227 192.103 54.2227H187.509V58.8047H192.173C194.291 58.8047 195.349 58.0352 195.349 56.4961Z" fill="white"/>
<path d="M209.364 59.0156C211.458 59.0156 212.907 57.9688 213.712 55.875L216.723 57.0117C216.075 58.6055 215.122 59.793 213.864 60.5742C212.614 61.3477 211.114 61.7344 209.364 61.7344C207.598 61.7344 206.094 61.3984 204.852 60.7266C203.61 60.0469 202.661 59.0664 202.005 57.7852C201.356 56.5039 201.032 54.9648 201.032 53.168C201.032 51.3555 201.344 49.8242 201.969 48.5742C202.594 47.3242 203.516 46.375 204.735 45.7266C205.954 45.0703 207.446 44.7422 209.212 44.7422C211.149 44.7422 212.727 45.1328 213.946 45.9141C215.165 46.6875 216.02 47.8281 216.512 49.3359L213.466 50.168C213.208 49.3398 212.7 48.6836 211.942 48.1992C211.192 47.707 210.305 47.4609 209.282 47.4609C207.719 47.4609 206.532 47.9453 205.719 48.9141C204.915 49.8828 204.512 51.3008 204.512 53.168C204.512 54.4336 204.696 55.5 205.063 56.3672C205.438 57.2344 205.985 57.8945 206.704 58.3477C207.43 58.793 208.317 59.0156 209.364 59.0156Z" fill="white"/>
<path d="M233.422 58.8281V61.5H219.957V44.9883H232.941V47.6602H223.414V51.8086H232.226V54.4805H223.414V58.8281H233.422Z" fill="white"/>
<path d="M250.507 50.2148C250.507 51.2852 250.261 52.2344 249.768 53.0625C249.284 53.8828 248.593 54.5273 247.694 54.9961C246.796 55.457 245.725 55.6875 244.483 55.6875H240.382V61.5H236.925V44.9883H244.343C246.319 44.9883 247.839 45.4453 248.901 46.3594C249.971 47.2656 250.507 48.5508 250.507 50.2148ZM247.026 50.2734C247.026 48.5391 246.003 47.6719 243.956 47.6719H240.382V53.0273H244.05C245.003 53.0273 245.737 52.793 246.253 52.3242C246.768 51.8477 247.026 51.1641 247.026 50.2734Z" fill="white"/>
<path d="M268.529 56.7891C268.529 58.2891 267.967 59.4492 266.842 60.2695C265.717 61.0898 264.154 61.5 262.154 61.5H253.892V44.9883H261.451C263.467 44.9883 264.99 45.3398 266.021 46.043C267.06 46.7383 267.58 47.7695 267.58 49.1367C267.58 50.0742 267.318 50.8672 266.795 51.5156C266.279 52.1562 265.49 52.5898 264.428 52.8164C265.763 52.9727 266.779 53.3945 267.474 54.082C268.178 54.7617 268.529 55.6641 268.529 56.7891ZM264.099 49.6055C264.099 48.8633 263.861 48.3359 263.385 48.0234C262.916 47.7109 262.217 47.5547 261.287 47.5547H257.349V51.6445H261.31C262.287 51.6445 262.994 51.4766 263.431 51.1406C263.877 50.7969 264.099 50.2852 264.099 49.6055ZM265.06 56.5195C265.06 54.9727 263.951 54.1992 261.732 54.1992H257.349V58.9336H261.861C262.971 58.9336 263.779 58.7344 264.287 58.3359C264.803 57.9297 265.06 57.3242 265.06 56.5195Z" fill="white"/>
<path d="M283.259 48.7852L276.122 61.5H272.184V44.9883H275.255V54.5859C275.255 55 275.247 55.4766 275.231 56.0156C275.216 56.5547 275.192 57.1523 275.161 57.8086L282.345 44.9883H286.235V61.5H283.165V51.7617C283.165 51.457 283.173 51.0586 283.188 50.5664C283.204 50.0664 283.227 49.4727 283.259 48.7852Z" fill="white"/>
<path d="M298.117 59.0156C300.211 59.0156 301.66 57.9688 302.465 55.875L305.476 57.0117C304.828 58.6055 303.875 59.793 302.617 60.5742C301.367 61.3477 299.867 61.7344 298.117 61.7344C296.351 61.7344 294.848 61.3984 293.605 60.7266C292.363 60.0469 291.414 59.0664 290.758 57.7852C290.109 56.5039 289.785 54.9648 289.785 53.168C289.785 51.3555 290.098 49.8242 290.723 48.5742C291.348 47.3242 292.269 46.375 293.488 45.7266C294.707 45.0703 296.199 44.7422 297.965 44.7422C299.902 44.7422 301.48 45.1328 302.699 45.9141C303.918 46.6875 304.773 47.8281 305.266 49.3359L302.219 50.168C301.961 49.3398 301.453 48.6836 300.695 48.1992C299.945 47.707 299.059 47.4609 298.035 47.4609C296.473 47.4609 295.285 47.9453 294.473 48.9141C293.668 49.8828 293.266 51.3008 293.266 53.168C293.266 54.4336 293.449 55.5 293.816 56.3672C294.191 57.2344 294.738 57.8945 295.457 58.3477C296.184 58.793 297.07 59.0156 298.117 59.0156Z" fill="white"/>
</svg>

<svg width="308" height="83" fill="none" xmlns="http://www.w3.org/2000/svg"><path fill-rule="evenodd" clip-rule="evenodd" d="M68.16 79H43.438C22.65 79 5.798 62.21 5.798 41.5S22.65 4 43.439 4H68.16C88.947 4 105.8 20.79 105.8 41.5S88.947 79 68.16 79ZM43.438 13.023c-15.786 0-28.583 12.75-28.583 28.477 0 13.492 9.418 24.793 22.062 27.733a28.753 28.753 0 0 1-7.279-19.156c0-15.974 12.997-28.923 29.03-28.923h29.49a28.544 28.544 0 0 0-19.998-8.13H43.438ZM54.778 69.6c-9.169-1.804-16.083-9.859-16.083-19.523 0-10.99 8.942-19.9 19.973-19.9h35.726a28.19 28.19 0 0 1 1.992 6.811H72.354c-11.644 0-21.083 9.405-21.083 21.006 0 4.29 1.29 8.28 3.507 11.606Zm41.608-23.588c-2.04 12.765-12.593 22.702-25.68 23.853-5.862-.8-10.379-5.81-10.379-11.87 0-6.619 5.385-11.983 12.027-11.983h24.032Z" fill="#3B4BDD"/><path d="M131.861 29.168c0 1.719-.348 3.223-1.043 4.512a7.364 7.364 0 0 1-2.918 2.988c-1.25.71-2.719 1.066-4.406 1.066-1.727 0-3.211-.343-4.453-1.03a7.023 7.023 0 0 1-2.86-2.966c-.664-1.281-.996-2.804-.996-4.57 0-1.766.328-3.277.984-4.535a6.79 6.79 0 0 1 2.86-2.883c1.25-.672 2.746-1.008 4.488-1.008 1.75 0 3.246.34 4.488 1.02a6.855 6.855 0 0 1 2.86 2.894c.664 1.258.996 2.762.996 4.512Zm-3.528 0c0-1.781-.421-3.176-1.265-4.184-.844-1.015-2.027-1.523-3.551-1.523-1.547 0-2.742.504-3.586 1.512-.844 1-1.265 2.398-1.265 4.195 0 1.203.195 2.242.585 3.117.391.875.946 1.55 1.665 2.028.726.468 1.585.703 2.578.703 1.547 0 2.738-.508 3.574-1.524.844-1.015 1.265-2.457 1.265-4.324ZM149.028 26.215c0 1.07-.246 2.02-.738 2.848-.485.82-1.176 1.464-2.075 1.933-.898.461-1.968.692-3.211.692h-4.101V37.5h-3.457V20.988h7.418c1.976 0 3.496.457 4.558 1.371 1.071.907 1.606 2.192 1.606 3.856Zm-3.481.058c0-1.734-1.023-2.601-3.07-2.601h-3.574v5.355h3.668c.953 0 1.687-.234 2.203-.703.516-.476.773-1.16.773-2.05ZM173.32 20.988V37.5h-20.906V20.988h3.339v13.653h5.438V20.988h3.34v13.653h5.449V20.988h3.34ZM181.405 33.281 179.94 37.5h-3.457l6.023-16.512h4.079l6 16.512h-3.422l-1.465-4.219h-6.293Zm3.141-9.75a18.57 18.57 0 0 1-.329 1.125c-.14.438-.242.746-.304.926l-1.735 5.098h4.746l-1.781-5.203c-.109-.32-.211-.645-.304-.973a38.551 38.551 0 0 0-.293-.973ZM123.517 59.016c2.094 0 3.543-1.047 4.348-3.141l3.011 1.137c-.648 1.593-1.601 2.781-2.859 3.562-1.25.774-2.75 1.16-4.5 1.16-1.766 0-3.269-.336-4.512-1.007a6.812 6.812 0 0 1-2.847-2.942c-.649-1.281-.973-2.82-.973-4.617 0-1.813.313-3.344.938-4.594a6.371 6.371 0 0 1 2.765-2.847c1.219-.657 2.711-.985 4.477-.985 1.937 0 3.515.39 4.734 1.172 1.219.773 2.074 1.914 2.567 3.422l-3.047.832c-.258-.828-.766-1.484-1.524-1.969-.75-.492-1.637-.738-2.66-.738-1.562 0-2.75.484-3.562 1.453-.805.969-1.207 2.387-1.207 4.254 0 1.266.183 2.332.55 3.2.375.866.922 1.526 1.641 1.98.726.445 1.613.668 2.66.668ZM140.977 47.66V61.5h-3.457V47.66h-5.332v-2.672h14.133v2.672h-5.344ZM151.546 57.281l-1.464 4.219h-3.457l6.023-16.512h4.078l6 16.512h-3.422l-1.465-4.219h-6.293Zm3.141-9.75c-.078.313-.187.688-.328 1.125-.141.438-.242.746-.305.926l-1.734 5.098h4.746l-1.781-5.203c-.11-.32-.211-.645-.305-.973a34.816 34.816 0 0 0-.293-.973ZM169.967 58.219c-.398 1.25-.902 2.14-1.511 2.672-.61.53-1.465.797-2.567.797-.531 0-.918-.067-1.16-.2v-2.894c.102.054.27.082.504.082.227 0 .43-.067.609-.2.18-.14.344-.347.493-.62.132-.25.257-.563.375-.938.125-.383.246-.836.363-1.36.07-.32.144-.699.223-1.136.078-.438.175-1.027.292-1.77.125-.75.278-1.738.458-2.965.179-1.226.402-2.792.667-4.699h11.157V61.5h-3.328V47.848h-4.77l-.574 4.078c-.422 2.922-.832 5.02-1.231 6.293ZM198.841 56.45c0 .991-.246 1.87-.738 2.636-.492.758-1.195 1.352-2.109 1.781-.914.422-2 .633-3.258.633h-8.684V44.988h3.457v6.575h5.602c1.836 0 3.25.43 4.242 1.289.992.851 1.488 2.05 1.488 3.597Zm-3.492.046c0-.727-.273-1.285-.82-1.676-.539-.398-1.348-.597-2.426-.597h-4.594v4.582h4.664c2.118 0 3.176-.77 3.176-2.309ZM209.364 59.016c2.094 0 3.543-1.047 4.348-3.141l3.011 1.137c-.648 1.593-1.601 2.781-2.859 3.562-1.25.774-2.75 1.16-4.5 1.16-1.766 0-3.27-.336-4.512-1.007a6.812 6.812 0 0 1-2.847-2.942c-.649-1.281-.973-2.82-.973-4.617 0-1.813.312-3.344.937-4.594a6.373 6.373 0 0 1 2.766-2.847c1.219-.657 2.711-.985 4.477-.985 1.937 0 3.515.39 4.734 1.172 1.219.773 2.074 1.914 2.566 3.422l-3.046.832c-.258-.828-.766-1.484-1.524-1.969-.75-.492-1.637-.738-2.66-.738-1.563 0-2.75.484-3.563 1.453-.804.969-1.207 2.387-1.207 4.254 0 1.266.184 2.332.551 3.2.375.866.922 1.526 1.641 1.98.726.445 1.613.668 2.66.668ZM233.422 58.828V61.5h-13.465V44.988h12.984v2.672h-9.527v4.149h8.812v2.672h-8.812v4.347h10.008ZM250.507 50.215c0 1.07-.246 2.02-.739 2.847-.484.82-1.175 1.465-2.074 1.934-.898.461-1.969.691-3.211.691h-4.101V61.5h-3.457V44.988h7.418c1.976 0 3.496.457 4.558 1.371 1.07.907 1.606 2.192 1.606 3.856Zm-3.481.058c0-1.734-1.023-2.601-3.07-2.601h-3.574v5.355h3.668c.953 0 1.687-.234 2.203-.703.515-.476.773-1.16.773-2.05ZM268.529 56.79c0 1.5-.562 2.66-1.687 3.48-1.125.82-2.688 1.23-4.688 1.23h-8.262V44.988h7.559c2.016 0 3.539.352 4.57 1.055 1.039.695 1.559 1.727 1.559 3.094 0 .937-.262 1.73-.785 2.379-.516.64-1.305 1.074-2.367 1.3 1.335.157 2.351.578 3.046 1.266.704.68 1.055 1.582 1.055 2.707Zm-4.43-7.184c0-.743-.238-1.27-.714-1.583-.469-.312-1.168-.468-2.098-.468h-3.938v4.09h3.961c.977 0 1.684-.168 2.121-.504.446-.344.668-.856.668-1.535Zm.961 6.913c0-1.546-1.109-2.32-3.328-2.32h-4.383v4.735h4.512c1.11 0 1.918-.2 2.426-.598.516-.406.773-1.012.773-1.816ZM283.259 48.785 276.122 61.5h-3.938V44.988h3.071v9.598c0 .414-.008.89-.024 1.43a93.79 93.79 0 0 1-.07 1.793l7.184-12.82h3.89V61.5h-3.07v-9.738c0-.305.008-.703.023-1.196.016-.5.039-1.093.071-1.78ZM298.117 59.016c2.094 0 3.543-1.047 4.348-3.141l3.011 1.137c-.648 1.593-1.601 2.781-2.859 3.562-1.25.774-2.75 1.16-4.5 1.16-1.766 0-3.269-.336-4.512-1.007a6.812 6.812 0 0 1-2.847-2.942c-.649-1.281-.973-2.82-.973-4.617 0-1.813.313-3.344.938-4.594a6.371 6.371 0 0 1 2.765-2.847c1.219-.657 2.711-.985 4.477-.985 1.937 0 3.515.39 4.734 1.172 1.219.773 2.074 1.914 2.567 3.422l-3.047.832c-.258-.828-.766-1.484-1.524-1.969-.75-.492-1.636-.738-2.66-.738-1.562 0-2.75.484-3.562 1.453-.805.969-1.207 2.387-1.207 4.254 0 1.266.183 2.332.55 3.2.375.866.922 1.526 1.641 1.98.727.445 1.613.668 2.66.668Z" fill="#fff"/></svg>
